!!!!SEGMENT: pl-kk--kk-i-382--096_zlotaszewski-jozef--boga-rodzico-dziewico.krn
!!!cenid: 18xx:1621
!!!COM: Złotaszewski, Józef
!!!COM-rismid: pe50043063
!!!CDT: <1860->1860
!!!CNT: Polish
!!!OTL: Boga Rodzico Dziewico
!!!PDT:
!!!AGN: Sacred
!!!SMS-siglum: PL-Kk
!!!SMS-shelfmark: Kk.I.382
!!!SMS-shelfwork: 096 W
!!!SMS-variant:
!!!SMS-altvar:
!!!NIFC-rismid: 1001142974
!!!URL-scan: http://repozytorium.nifc.pl/skany/pl-kk-nut--i-382
!!!ONB-nifc: S/T1 0067, T2 0136, A/B1 0211, B2 0284
!!!key:
**kern	**text	**dynam	**kern	**text	**dynam	**kern	**text	**dynam	**kern	**text	**dynam
*part4	*part4	*part4	*part3	*part3	*part3	*part2	*part2	*part2	*part1	*part1	*part1
*staff4	*staff4	*	*staff3	*staff3	*	*staff2	*staff2	*	*staff1	*staff1	*
*Ibass	*	*	*Itenor	*	*	*Ialto	*	*	*Itenor	*	*
*I"Basso II	*	*	*I"Tenore II	*	*	*I"Alto vel Basso I	*	*	*I"Soprano vel Tenore I.	*	*
*I'B 2	*	*	*I'T 2	*	*	*I'A (B 1)	*	*	*I'S (T 1)	*	*
*clefF4	*	*	*clefG2	*	*	*clefF4	*	*	*clefG2	*	*
*	*	*	*ITrd7c12	*	*	*	*	*	*	*	*
*k[]	*	*	*k[]	*	*	*k[]	*	*	*k[]	*	*
*C:	*	*	*C:	*	*	*C:	*	*	*C:	*	*
*M4/4	*	*	*M4/4	*	*	*M4/4	*	*	*M4/4	*	*
*met(c)	*	*	*met(c)	*	*	*met(c)	*	*	*met(c)	*	*
=1	=1	=1	=1	=1	=1	=1	=1	=1	=1	=1	=1
*2\right	*	*	*2\right	*	*	*2\right	*	*	*2\right	*	*
!	!	!	!	!	!	!	!	!	!LO:TX:t=P:problem=UWAGA! Dywizy zapisano zgodnie ze źródłem [po konsultacji z E.Z.]	!	!
!	!	!	!LO:TX:t=P:problem=4,8,16/left or middle&colon; global	!	!	!	!	!	!LO:TX:t=P:problem=all\right&colon; global	!	!
!LO:TX:t=P:problem=4,8,16/left or middle&colon; global	!	!	!	!	!	!LO:TX:t=P:problem=all\right&colon; global	!	!	!	!	!
!	!	!LO:DY:a:rj	!LO:TX:a:B:t=Moderato	!	!	!LO:TX:a:B:t=Moderato	!	!LO:DY:a:rj	!LO:TX:a:B:t=Moderato	!	!
!	!	!	!LO:TX:t=P:problem=oznaczenie dynamiczne na pierwszym polu przed nutą	!	!LO:DY:b:rj	!LO:TX:t=P:problem=oznaczenie dynamiczne na piątej linii przed nutą	!	!	!LO:TX:t=P:problem=oznaczenie dynamiczne na pierwszym polu przed nutą	!	!LO:DY:b:rj
4C/	Bo-	p	4G/	Bo-	p	4E\	Bo-	p	4cc\	Bo-	p
!	!	!LO:HP:a	!	!	!LO:HP:a	!	!	!LO:HP:a	!	!	!
8C/	-ga	<	8G/	-ga	<	8D\	-ga-	<	8b\	-ga-	.
!	!	!	!	!	!	!	!	!	!	!	!LO:HP:a
8C/	Ro-	.	8G/	Ro-	.	8E\	-ro-	.	8cc\	-Ro-	<
4C/	-dzi-	.	4G/	-dzi-	.	4F\	-dzi-	.	4dd\	-dzi-	.
!	!	!	!LO:TX:t=P:problem=all\right&colon; global	!	!	!	!	!	!	!	!
4C/	-co	[[	4B-X\	-co	[	4G\	-co	[[	4ee\	-co	[[
=2	=2	=2	=2	=2	=2	=2	=2	=2	=2	=2	=2
!	!	!LO:DY:a:rj	!	!	!	!	!	!LO:HP:a	!	!	!
!LO:TX:t=P:problem=2/left&colon; global	!	!LO:HP:a	!	!	!	!	!	!LO:DY:a:rj	!	!	!
2C/	Dzie-	f >	2c\	Dzie-	.	2A\	Dzie-	f >	2gg\	Dzie-	.
!	!	!	!	!	!LO:HP:a	!	!	!	!	!	!LO:HP:a
.	.	.	.	.	>	.	.	.	.	.	.
4C/	-wi-	.	4c\	-wi-	.	4A-X\	-wi-	.	4ff\	-wi-	>
4C/	-co	]]	4c\	-co	.	4G\	-co	]]	4ee\	-co	.
=3	=3	=3	=3	=3	=3	=3	=3	=3	=3	=3	=3
4.C/	O-	.	4.A\	O-	]	4.F#X\	O-	.	4.dd\	O-	]
8C/	-pie-	.	8A/	-pie-	.	8F#\	-pie-	.	8dd\	-pie-	.
4C/	-kun-	.	4B\	-kun-	.	4Fn\	-kun-	.	4ee\	-kun-	.
4C/	-ko	.	4B\	-ko	.	4F\	-ko	.	4dd\	-ko	.
=4	=4	=4	=4	=4	=4	=4	=4	=4	=4	=4	=4
!	!	!	!LO:TX:t=P:problem=2/left&colon; global	!	!	!	!	!	!	!	!
2C/	lu-	.	2G/	lu-	.	2E\	lu-	.	2cc\	lu-	.
!LO:N:vis=4.	!	!	!	!	!	!	!	!	!	!	!
[>4GG/	-dzi,	.	[>4B\	-dzi	.	[>4G\	-dzi	.	[>4dd\	-dzi	.
8GG/]	.	.	8B\]	.	.	8G\]	.	.	8dd\]	.	.
8r	.	.	8r	.	.	8r	.	.	8r	.	.
!LO:LB:g=original	!	!	!LO:LB:g=original	!	!	!LO:LB:g=original	!	!	!LO:LB:g=original	!	!
=5	=5	=5	=5	=5	=5	=5	=5	=5	=5	=5	=5
!	!	!LO:HP:a	!	!	!	!	!	!LO:HP:a	!	!	!
4C/	niech	<	4G/	niech	.	4E\	niech	<	4cc\	niech	.
!	!	!	!	!	!LO:HP:a	!	!	!	!	!	!
8C/	Cię	.	8G/	Cię	<	8D\	Cię	.	8b\	Cię	.
8C/	głos	.	8G/	glos	.	8E\	głos	.	8cc\	głos	.
4C/	sie-	.	4G/	sie-	.	4F\	sie-	.	4dd\	sie-	.
4C/	-rot	[[	4B-X\	-rot,	[[	4G\	-rót	[[	4ee\	-rot	.
=6	=6	=6	=6	=6	=6	=6	=6	=6	=6	=6	=6
!	!	!LO:HP:a	!	!	!	!	!	!LO:HP:a	!	!	!
2C/	sie-	>	2c\	sie-	.	2A\	sie-	>	2gg\	sie-	.
!	!	!	!	!	!LO:HP:a	!	!	!	!	!	!
.	.	.	.	.	>	.	.	.	.	.	.
4C/	-rót	.	4c\	-rot,	.	4A-X\	-rót	.	4ff\	-rót	.
8C/	do-	.	8c\	do-	.	8G\	do-	.	8ee\	do-	.
8C/	-li	]	8c\	-li	.	8G\	-li	.	8ee\	-li	.
=7	=7	=7	=7	=7	=7	=7	=7	=7	=7	=7	=7
!LO:TX:t=P:problem=all\right&colon; global	!	!	!	!	!	!	!	!	!	!	!
4.D\	toś-	.	4.c\	toś-	]	4.F#X\	toś-	]	4.dd\	toś-	.
8D\	-ci	.	8c\	-ci	.	8F#\	-ci-	.	8dd\	-ci,	.
2GG/	wzbu-	.	2B\	wzbu-	.	2Fn\	-wzbu-	.	(>4.ee\	wzbu-	.
.	.	.	.	.	.	.	.	.	8dd\)	.	.
=8	=8	=8	=8	=8	=8	=8	=8	=8	=8	=8	=8
[>2C/	-dzi	.	[>2G/	-dzi,	.	[>2E\	-dzi,	.	[>2cc\	-dzi,	.
4C/]	.	.	4G/]	.	.	4E\]	.	.	4cc\]	.	.
4r	.	.	4r	.	.	4r	.	.	4r	.	.
!LO:LB:g=original	!	!	!LO:LB:g=original	!	!	!LO:LB:g=original	!	!	!LO:LB:g=original	!	!
=9	=9	=9	=9	=9	=9	=9	=9	=9	=9	=9	=9
!	!	!LO:DY:a:rj	!	!	!LO:DY:a:rj	!	!	!	!	!	!
4G\	W_nie-	f	4B\	W_nie-	f	4B\	W_nie-	.	4dd\	W_nie-	.
8.G\	-szczęś-	.	8.d\	-szczęś-	.	8.B\	-szcze-	.	8.gg\	-szczęs-	.
16G\	-ciach	.	16d\	-ciach	.	16B\	-ściach	.	16gg\	-ciach	.
4G\	na-	.	4e-X\	na-	.	4c\	na-	.	4ff#X\	na-	.
4G\	-szych	.	4d\	-szych	.	4B\	-szych	.	4gg\	-szych	.
=10	=10	=10	=10	=10	=10	=10	=10	=10	=10	=10	=10
!	!	!LO:DY:a:rj	!	!	!	!	!	!	!	!	!
8G\	nie-	p	8B\	nie-	.	8B\	nie-	.	8dd\	nie-	.
8G\	-o-	.	8B\	-o-	.	8B\	-o-	.	8dd\	-o-	.
8.F#X\	-pusz-	.	8.c\	-pusz-	.	8.A\	-pusz-	.	8.ee-X\	-pusz-	.
16F#\	-czaj	.	16c\	-czaj	.	16A\	-czaj	.	16ee-\	-czaj	.
2G\	nas	.	2B\	nas	.	2B\	nas	.	2dd\	nas	.
=11	=11	=11	=11	=11	=11	=11	=11	=11	=11	=11	=11
!	!	!LO:HP:a	!	!	!	!	!	!LO:HP:a	!	!	!LO:HP:b
4E\	lecz	>	4B\	lecz	.	4G\	lecz	>	4gg\	lecz	>
8E-\	wspie-	.	8c\	wspie-	.	8G\	wspie-	.	8gg\	wspie-	.
8E-\	-raj	.	8c\	-raj	.	8G\	-raj	.	8gg\	-raj	.
4D\	nas	.	4B\	nas,	.	4G\	nas	.	4gg\	nas	.
4C#X/	do-	]]	4B-\	Do-	.	4G\	do-	]]	8ff#X\L	do-	.
.	.	.	.	.	.	.	.	.	8ee\J	.	]]
!LO:LB:g=original	!	!	!LO:LB:g=original	!	!	!LO:LB:g=original	!	!	!LO:LB:g=original	!	!
=12	=12	=12	=12	=12	=12	=12	=12	=12	=12-	=12	=12
!	!	!	!	!	!	!	!	!	!	!	!LO:HP:b
4.D\	-bro-	.	4.A/	-bro-	.	4.F#X\	-bro-	.	4.dd\	-bro-	>
8D\	-cią	.	8c\	-cią	.	8F#\	-cią	.	8ee\	-cią	]
4GG/	swą	.	4B\	swą	.	4G\	swą	.	(>4dd\	swą	.
4r	.	.	4r	.	.	4r	.	.	4dd#X\)	.	.
=13	=13	=13	=13	=13	=13	=13	=13	=13	=13	=13	=13
!LO:TX:a:t=dolcze	!	!LO:DY:a:rj	!	!	!	!LO:TX:a:t=dolce	!	!	!	!	!
4.C/	Two-	p	4.G/	Two-	.	4.E\	Two-	.	(>4ee\	Two-	.
.	.	.	.	.	.	.	.	.	8dd\)	.	.
8C/	-ja	.	8G/	-ja	.	8E\	-ja	.	8cc\	-ja	.
4D\	tyl-	.	4G/	tyl-	.	4F\	tyl-	.	4cc\	tyl-	.
4D\	-ko	.	4G/	-ko	.	4F\	-ko	.	4b\	-ko	.
=14	=14	=14	=14	=14	=14	=14	=14	=14	=14	=14	=14
!	!	!LO:HP:a	!	!	!	!	!	!	!	!	!LO:HP:b
4GG/	Two-	<	4B\	Two-	.	4G\	Two-	.	4ff\	Two-	<
8.GG/	-ja	.	8.c\	-ja-	.	8.A\	-ja	.	8.ff\	-ja	.
16GG/	O-	.	16d\	-O-	.	16B\	o-	.	16ff\	o-	[
!	!	!LO:HP:a	!	!	!	!	!	!	!	!	!LO:HP:b
4C/	-pie-	[ >	4d\	-pie-	.	4G\	-pie-	.	4ff\	-pie-	>
4C/	-ka	]]	4c\	-ka	.	4G\	-ka	.	4ee\	-ka	]]
=15	=15	=15	=15	=15	=15	=15	=15	=15	=15	=15	=15
4C#X/	od	.	4B-X\	od	.	4G\	od	.	4ee\	od	.
8C#/	wsze-	.	8B-\	wsze-	.	8G\	wsze-	.	8ff\	wsze-	.
8C#/	-go	.	8B-\	-go	.	8G\	-go	.	8ee\	-go	.
!LO:LB:g=original	!	!	!	!	!	!	!	!	!LO:LB:g=original	!	!
4.D\	złe-	.	4.A/	złe-	.	4.F\	złe-	.	4.ee\	złe-	.
!LO:TX:t=P:problem=X pod kreską taktową	!	!	!	!	!	!LO:TX:t=P:problem=X obok tekstu słownego	!	!	!LO:TX:t=P:problem=X pod kreską taktową	!	!
8D\	-go	.	8A/	-go	.	8F\	-go	.	8dd\	-go	.
!	!	!	!LO:LB:g=original	!	!	!LO:PB:g=original	!	!	!	!	!
=16	=16	=16	=16	=16	=16	=16	=16	=16	=16	=16	=16
!	!	!	!	!	!LO:HP:a	!	!	!LO:HP:a	!	!	!LO:HP:b
4F\	u-	.	4A/	u-	<	4F\	u-	<	4cc\	u-	<
8.F\	-chro-	.	8.A/	-chro-	.	8.F\	-chro-	.	8.dd\	-chro-	.
16F\	-ni	.	16A/	-ni-	.	16A\	-ni-	.	16dd#X\	-ni-	.
[<4E\	nas	.	[>4Bn\	-nas	.	[>4G#X\	-nas	[	[4ee\	-nas	.
8E\]	.	.	8B\]	.	[	8G#\]	.	.	8ee\]	.	[
8r	.	.	8r	.	.	8r	.	.	8r	.	.
=17	=17	=17	=17	=17	=17	=17	=17	=17	=17	=17	=17
!	!	!LO:DY:a:rj	!LO:TX:t=P:problem=oznaczenie dynamiczne na piątej linii przed nutą	!	!LO:DY:a:rj	!	!	!LO:DY:a:rj	!LO:TX:t=P:problem=oznaczenie dynamiczne na piątej linii przed nutą	!	!LO:DY:a:rj
4C/	Czyz	p	4G/	Czyz	p	4E\	Czyż	p	4ee\	Czyz	p
8C/	Cię	.	8G/	Cię	.	8E\	Cię	.	8dd\	Cię	.
8C/	nie-	.	8G/	nie	.	8E\	nie	.	8cc\	nie	.
4D\	-wzró-	.	4G/	wzrò-	.	4F\	wzru-	.	4cc\	wzru-	.
4D\	-szą	.	4G/	-szą	.	4F\	-szą	.	4b\	-szą	.
=18	=18	=18	=18	=18	=18	=18	=18	=18	=18	=18	=18
!	!	!	!	!	!	!	!	!	!LO:TX:t=P:problem=oznaczenie dynamiczne na piątej linii przed nutą	!	!LO:DY:a:rj
4GG/	na-	.	4B\	na-	.	4G\	na-	.	4gg\	na-	f
8.G\	-sze	.	8.c\	-sze	.	8.A\	-sze	.	8.ff#X\	-sze-	.
16G\	bła-	.	16d\	bła-	.	16B\	bła-	.	16ffn\	-bła-	.
!LO:LB:g=original	!	!	!	!	!	!	!	!	!	!	!
4G#X\	-ga-	.	4d\	-ga-	.	4B\	-ga-	.	4ff\	-ga-	.
4A\	-nia	.	4c\	-nia	.	4c\	-nia	.	4ee\	-nia	.
!	!	!	!LO:LB:g=original	!	!	!LO:LB:g=original	!	!	!LO:LB:g=original	!	!
=19	=19	=19	=19	=19	=19	=19	=19	=19	=19	=19	=19
!	!	!	!	!	!	!LO:TX:b:t=rall:rj	!	!	!LO:TX:b:t=rallen	!	!
4AA^>/	Czy-	.	4c#X\	Czy-	.	4A^<\	Czy-	.	4ee^<\	Czy-	.
8AA^>/	-liz	.	8d^<\	-liz	.	8A^<\	-liż	.	8ff^<\	-liz	.
8AA^>/	o-	.	8c#^<\	o-	.	8A^<\	o-	.	8ee^<\	o-	.
8C#X^>/	-bro-	.	8e^<\	-bro-	.	8A^<\	-bro-	.	8gg^<\	-bro-	.
8D^>\	-ny	.	8d^<\	-ny	.	8A^<\	-ny	.	8ff^<\	-ny	.
8E^>\	nam	.	8c#^<\	nam	.	8A^<\	nam	.	8ee^<\	nam	.
8F^>\	od	.	8d^<\	od	.	8A^<\	od	.	8dd^<\	od	.
=20	=20	=20	=20	=20	=20	=20	=20	=20	=20	=20	=20
!	!	!LO:HP:a	!	!	!	!	!	!	!	!	!
4G\	mò-	>	4.cn\	mò-	.	4.G\	mó-	.	4.ee\	mó-	.
4GG/	-wisz	.	.	.	.	.	.	.	.	.	.
.	.	.	8B\	-wisz	.	8F\	-wisz	.	8dd\	-wisz	.
[>4C/	Twej	.	[<4G/	Twej	.	[>4E\	Twej	.	[4cc\	Twej	.
8C/]	.	]	8G/]	.	.	8E\]	.	.	8cc\]	.	.
!LO:TX:t=P:problem=X po kresce taktowej	!	!	!	!	!	!LO:TX:t=P:problem=X po pauzie	!	!	!	!	!
8r	.	.	8r	.	.	8r	.	.	8r	.	.
!LO:LB:g=original	!	!	!	!	!	!	!	!	!	!	!
=21	=21	=21	=21	=21	=21	=21	=21	=21	=21	=21	=21
!	!	!	!	!	!	!	!	!	!LO:N:vis=2	!	!
!LO:TX:a:t=solo	!	!	!LO:TX:a:t=1	!	!	!LO:TX:a:t=1	!	!	!LO:TX:a:t=1	!	!
4E\	Bo-	.	1r	.	.	1r	.	.	1r	.	.
8G#X\	-ga	.	.	.	.	.	.	.	.	.	.
8A\	Ro-	.	.	.	.	.	.	.	.	.	.
4B\	-dzi-	.	.	.	.	.	.	.	.	.	.
4E\	-co	.	.	.	.	.	.	.	.	.	.
=22	=22	=22	=22	=22	=22	=22	=22	=22	=22	=22	=22
4E\	Bo-	.	4B\	Bo-	.	4G#X\	Bo-	.	4ee\	Bo-	.
8E\	-ga	.	8B\	-ga-	.	8G#\	-ga	.	8ee\	-ga	.
8E\	Ro-	.	8B\	-Ro-	.	8G#\	Ro-	.	8ee\	Ro-	.
4E\	-dzi-	.	4c\	-dzi-	.	4A\	-dzi-	.	4ff\	-dzi-	.
4E\	-co	.	4B\	-co	.	4G#\	-co	.	4ee\	-co	.
!	!	!	!LO:LB:g=original	!	!	!LO:LB:g=original	!	!	!LO:LB:g=original	!	!
=23	=23	=23	=23	=23	=23	=23	=23	=23	=23	=23	=23
!	!	!	!	!	!	!LO:N:vis=2	!	!	!	!	!
!	!	!	!LO:TX:a:t=1	!	!	!LO:TX:a:t=1	!	!	!	!	!
8E\	O-	.	1r	.	.	1r	.	.	1r	.	.
8E\	-pie-	.	.	.	.	.	.	.	.	.	.
8A\	-kun-	.	.	.	.	.	.	.	.	.	.
8B\	-ko	.	.	.	.	.	.	.	.	.	.
4c\	na-	.	.	.	.	.	.	.	.	.	.
4E\	-sza	.	.	.	.	.	.	.	.	.	.
!LO:LB:g=original	!	!	!	!	!	!	!	!	!	!	!
=24	=24	=24	=24	=24	=24	=24	=24	=24	=24	=24	=24
!	!	!LO:DY:a:rj	!	!	!	!	!	!LO:DY:a:rj	!LO:TX:t=P:problem=oznaczenie dynamiczne na piątej linii przed nutą	!	!LO:DY:a:rj
8E\	O-	p	8c\	O-	.	8A\	O-	p	8ff\	O-	p
8E\	-pie-	.	8c\	-pie-	.	8A\	-pie-	.	8ff\	-pie-	.
8E\	-kun-	.	8c\	-kun-	.	8A\	-kun-	.	8ff\	-kun-	.
8E\	-ko	.	8c\	-ko	.	8A\	-ko	.	8ee\	-ko	.
4E\	na-	.	4c\	na-	.	4A\	na-	.	4dd#X\	na-	.
4E\	-sza	.	4B\	-sza	.	4G#X\	-sza	.	4ee\	-sza	.
=25	=25	=25	=25	=25	=25	=25	=25	=25	=25	=25	=25
!	!	!LO:DY:a:rj	!	!	!	!	!	!LO:DY:a:rj	!	!	!LO:DY:a:rj
!	!	!	!	!	!	!	!	!	!	!	!LO:HP:a
4C#X/	U-	f	4B-\	U-	.	4Gn\	U-	f	4ee\	U-	f<
!	!	!LO:HP:a	!	!	!	!	!	!LO:HP:a	!	!	!
8.C#/	-slysz	<	8.B-\	-slysz	.	8.G\	-słysz	<	8.ee\	-slysz	.
!LO:TX:a:t=d	!	!	!	!	!	!	!	!	!	!	!
16D/	te	.	16B-\	te	.	16G\	te	.	16ddn\	te	.
4E\	mo-	.	4B-\	mo-	.	4G\	mo-	.	4cc#X\	mo-	.
8.F\	-dly	.	8.A/	-dly	.	8.F\	-dły	.	8.dd\	-dły;	.
16F\	i	[[	16A/	i	.	16F\	i	[[	16dd\	i	[
!	!	!	!LO:LB:g=original	!	!	!	!	!	!	!	!
=26	=26	=26	=26	=26	=26	=26	=26	=26	=26	=26	=26
4.E\	zli-	.	4.c\	zli-	.	4.A\	zli-	.	4.ee\	zli-	.
8E\	-tuj	.	8c\	-tuj	.	8A\	-tuj	.	8ee\	-tuj	.
!LO:LB:g=original	!	!	!	!	!	!	!	!	!	!	!
4.E^>\	zli-	.	4.Bn\	zli-	.	4.G#X^>\	zli-	.	4.ff\	zli-	.
8E\	-tuj	.	8B\	-tuj	.	8G#\	-tuj	.	8ee\	-tuj	.
!	!	!	!	!	!	!LO:LB:g=original	!	!	!LO:LB:g=original	!	!
=27	=27	=27	=27	=27	=27	=27	=27	=27	=27-	=27	=27
[>4AA/	się	.	[>4c\	się	.	[>4A\	się	.	[>4ee\	się	.
8AA/]	.	.	8c\]	.	.	8A\]	.	.	8ee\]	.	.
8r	.	.	8r	.	.	8r	.	.	8r	.	.
2GG/	O	.	2B\	O	.	2F\	O	.	[>2gg\	O	.
=28	=28	=28	=28	=28	=28	=28	=28	=28	=28	=28	=28
!	!	!LO:DY:a:rj	!	!	!	!	!	!	!	!	!
4C/	słu-	p	4c\	słu-	.	4E\	słu-	.	1gg]	.	.
8C/	-chaj	.	8B\	-chaj	.	8D\	-chaj	.	.	.	.
8C/	nas	.	8c\	nas	.	8E\	nas	.	.	.	.
4C/	Bo-	.	4d\	Bo-	.	4F\	Bo-	.	.	.	.
4C/	-za	.	4e\	-za	.	4B-X\	-ża	.	.	.	.
=29	=29	=29	=29	=29	=29	=29	=29	=29	=29	=29	=29
(>4C/	Mat-	<	4c\	Mat-	.	(>4A-X\	Mat-	.	(>4ff\	Mat-	.
4BB-/)	.	.	4d-X\	.	.	4E-X\)	.	.	4gg\)	.	.
2AA-X/	-ko	[	2c\	-ko	.	2E-\	-ko	.	2aa-X\	-ko	.
!LO:LB:g=original	!	!	!LO:LB:g=original	!	!	!	!	!	!	!	!
=30	=30	=30	=30	=30	=30	=30	=30	=30	=30	=30	=30
!	!	!LO:DY:a:rj	!	!	!	!	!	!	!	!	!LO:DY:a:rj
4.AA-X/	Ra-	p	4.c\	Ra-	.	4.E-X\	Ra-	.	4.ff#X\	Ra-	p
8AA-/	-tuj	.	8c\	-tuj-	.	8E-\	-tuj	.	8ff#\	-tuj	.
4.GG/	nas	.	4.c\	-nas	.	4.En\	nas	.	4.gg\	nas	.
8r	.	.	8r	.	.	8r	.	.	8r	.	.
!	!	!	!	!	!	!LO:LB:g=original	!	!	!	!	!
=31	=31	=31	=31	=31	=31	=31	=31	=31	=31	=31	=31
!	!	!LO:DY:a:rj	!	!	!LO:DY:b:rj	!	!	!	!	!	!LO:DY:a:rj
2GG^>/	zbaw	f	2B\	zbaw-	p	2F^>\	zbaw	.	(>4.ee^\	zbaw	f
.	.	.	.	.	.	.	.	.	8dd\)	.	.
4.C/	nas	.	4.G/	-nas	.	4.E\	nas	.	4.cc\	nas	.
8r	.	.	8r	.	.	8r	.	.	8r	.	.
!	!	!	!	!	!	!	!	!	!LO:LB:g=original	!	!
=32	=32	=32	=32	=32	=32	=32	=32	=32	=32	=32	=32
!	!	!LO:HP:a	!LO:TX:t=P:problem=oznaczenie dynamiczne na pierwszej linii przed nutą	!	!LO:DY:b:rj	!	!	!LO:HP:a	!	!	!LO:HP:a
2C/	ach	<	2G/	ach	pp	2E\	ach	<	2cc\	ach	<
!	!	!	!	!	!	!	!	!	!LO:TX:a:t=rallen	!	!
2C/	zbaw	[[	(<4A/	zbaw	.	2F\	zbaw	[[	2cc\	zbaw	[[
.	.	.	4A-/)	.	.	.	.	.	.	.	.
=33	=33	=33	=33	=33	=33	=33	=33	=33	=33	=33	=33
!LO:TX:t=P:problem=kreska taktowa pojedyncza	!	!LO:HP:a	!	!	!	!	!	!LO:DY:a	!	!	!LO:HP:a
1C;>	nas	>]	1G;>	nas	.	1E;>	nas.	>]	1cc;>	nas	>]
==	==	==	==	==	==	==	==	==	==	==	==
*-	*-	*-	*-	*-	*-	*-	*-	*-	*-	*-	*-
!!!system-decoration: [(s1,s2,s3,s4)]
!!!RDF**kern: > = above
!!!RDF**kern: < = below
!!!EED: Mateusz Mrugas
!!!EST: 2021-03-27
!!!AIN: 1 alto 1 bass 2 tenor
!!!ENC: Andrzej Kubiczek
!!!END: 2021-03-06
